X: 6
T: Sean Tiobrad Arann
R: jig
M: 6/8
L: 1/8
K: Gmaj
|: d |cAF GFG | AGF GB/c/d | cAF GFG | ADE FAd |
cAF G2 G | AGF G2 d | fdd e2 d |[1 fd/e/d c2 :|[2 f2 d cAD ||
|: GB/c/d g2 g | gaf g2 f | dgg gfg | abg fga |
b2 g agf | g2 e fe^c | dcA dAe |[1 ff/e/d cAD :|[2 fed c2 |]


Tune 2599	Setting 22020

